X:702
T:Mrs. George Johnstone of Byker
R:Reel
B:The Athole Collection
M:C|
L:1/8
K:B Minor
f|:Bcde f2ea|cAeA aAec|Bcde faea|cAac B/B/B f2:|
|:B/B/B b^a bBbf|aba>f defd|efab faea|cAac B/B/B f2:|

